components/Common/Svg/svgs/profitsRaise.svg

<svg
  width="90"
  height="90"
  viewBox="0 0 90 90"
  fill="none"
  xmlns="http://www.w3.org/2000/svg"
>
  <circle
    opacity="0.5"
    cx="45"
    cy="45"
    r="45"
    fill="#FFE603"
  ></circle>
  <path
    d="M54.7084 52.6411C54.3493 52.2065 53.6564 51.8474 52.6359 51.5765V49.0884C53.0454 49.2647 53.3036 49.6049 53.3981 50.1088L55.0107 49.901C54.8973 49.2647 54.6454 48.7545 54.2485 48.3765C53.8517 47.9986 53.3162 47.7655 52.6359 47.6836V47.0537H51.7162V47.6836C50.9855 47.7529 50.3997 48.0301 49.965 48.5025C49.5241 48.975 49.3036 49.5608 49.3036 50.2537C49.3036 50.9403 49.4989 51.5262 49.8832 52.0049C50.2737 52.4836 50.8784 52.8427 51.7099 53.0821V55.7466C51.4832 55.6332 51.2753 55.4569 51.0863 55.2112C50.8973 54.9655 50.7713 54.6695 50.7021 54.3356L49.0391 54.512C49.165 55.3498 49.4611 55.9923 49.9147 56.4521C50.3745 56.912 50.9666 57.1828 51.7036 57.271V58.4301H52.6233V57.2395C53.4485 57.1199 54.0973 56.7986 54.5635 56.2695C55.0296 55.7403 55.2627 55.0978 55.2627 54.3293C55.2627 53.6427 55.08 53.0821 54.7084 52.6411ZM51.7099 51.2679C51.4328 51.1482 51.2312 50.9907 51.0926 50.8017C50.954 50.6065 50.891 50.3986 50.891 50.1781C50.891 49.9325 50.9666 49.7057 51.1115 49.5041C51.2627 49.3025 51.458 49.1576 51.7099 49.0695V51.2679ZM53.4107 55.3939C53.2091 55.6269 52.9509 55.7781 52.6359 55.8348V53.3529C53.0202 53.4663 53.291 53.6238 53.4611 53.8254C53.6312 54.0332 53.7131 54.2789 53.7131 54.5624C53.7131 54.8836 53.6123 55.1608 53.4107 55.3939Z"
    fill="black"
  ></path>
  <path
    d="M29.9648 41.3843V51.1921H34.0908V41.3843H29.9648ZM33.0641 50.1591H30.9979V42.4173H33.0641V50.1591Z"
    fill="black"
  ></path>
  <path
    d="M36.1562 38.2915V51.1923H40.2822V38.2915H36.1562ZM39.2555 50.1655H37.1893V39.3246H39.2555V50.1655Z"
    fill="black"
  ></path>
  <path
    d="M58.8657 47.948V29H54.7397V44.9055C54.0846 44.6913 53.3917 44.5591 52.6736 44.515V32.0992H48.5476V45.3276C47.7854 45.6992 47.0925 46.1843 46.4815 46.7575V35.1921H42.3555V51.1921H44.0563C43.9618 51.6961 43.9051 52.2126 43.9051 52.7417C43.9051 57.2961 47.609 61 52.1633 61C56.7177 61 60.4216 57.2961 60.4216 52.7417C60.4153 50.9528 59.8358 49.3024 58.8657 47.948ZM55.7728 30.0331H57.8389V46.7575C57.7822 46.7008 57.7193 46.6504 57.6626 46.6C57.5366 46.4866 57.4043 46.3732 57.272 46.2661C57.1334 46.1528 56.9885 46.0457 56.8374 45.9449C56.7555 45.8882 56.6673 45.8315 56.5791 45.7811C56.4594 45.7055 56.3397 45.6299 56.2137 45.5606C56.1256 45.5102 56.0311 45.4598 55.9366 45.4157C55.8799 45.378 55.8295 45.3465 55.7728 45.3213V30.0331ZM49.5744 33.126H51.6405V44.4961C51.5649 44.5024 51.483 44.5087 51.4074 44.5213C51.3507 44.5276 51.3004 44.5276 51.2437 44.5339C51.0043 44.5591 50.7712 44.5969 50.5381 44.6409C50.4878 44.6535 50.4374 44.6661 50.3807 44.6787C50.198 44.7165 50.009 44.7669 49.8263 44.8236C49.757 44.8425 49.6941 44.8614 49.6248 44.8803C49.6185 44.8866 49.5996 44.8929 49.5744 44.8992V33.126ZM44.7366 49.126C44.5728 49.4598 44.4279 49.8 44.3082 50.1591H43.3822V36.2252H45.4484V47.9417C45.4421 47.9543 45.4358 47.9669 45.4232 47.9795C45.3287 48.1118 45.2468 48.2441 45.1586 48.3764C45.1208 48.4394 45.083 48.4961 45.0452 48.5591C44.9633 48.6976 44.8878 48.8362 44.8122 48.9748C44.787 49.0252 44.7618 49.0756 44.7366 49.126ZM52.157 59.9669C48.1696 59.9669 44.9318 56.7228 44.9318 52.7417C44.9318 52.074 45.0326 51.4252 45.2027 50.8079C45.2594 50.6063 45.3224 50.4173 45.3917 50.222C45.398 50.1968 45.4106 50.178 45.4169 50.1528C45.4862 49.9701 45.5618 49.7937 45.65 49.6236C45.6626 49.5921 45.6815 49.5606 45.6941 49.5291C45.7759 49.3591 45.8704 49.1953 45.9649 49.0378C45.9838 49.0063 46.0027 48.9748 46.0216 48.9433C46.1224 48.7858 46.2295 48.6283 46.3429 48.4709C47.0988 47.4504 48.1067 46.6315 49.2846 46.1213C49.4862 46.0331 49.6941 45.9575 49.9019 45.8882C49.9271 45.8819 49.946 45.8693 49.9649 45.863C50.1791 45.7937 50.3996 45.737 50.6137 45.6929C50.6326 45.6866 50.6515 45.6803 50.6767 45.674C50.8909 45.6299 51.1114 45.5984 51.3255 45.5732C51.3507 45.5732 51.3759 45.5669 51.4074 45.5606C51.6531 45.5354 51.8988 45.5228 52.1507 45.5228C53.1397 45.5228 54.0783 45.7244 54.9413 46.0835L54.9917 46.1087C55.0295 46.1276 55.0673 46.1465 55.1051 46.1591C55.3381 46.2661 55.5649 46.3795 55.7854 46.5118C55.8421 46.5433 55.8988 46.5811 55.9492 46.6126C56.1633 46.7449 56.3775 46.8961 56.5791 47.0535C56.598 47.0724 56.6232 47.085 56.6421 47.1039C57.1082 47.4819 57.5366 47.9165 57.9019 48.4016C58.8216 49.611 59.3696 51.1165 59.3696 52.7543C59.3822 56.7291 56.1444 59.9669 52.157 59.9669Z"
    fill="black"
  ></path>
</svg>

<svg width="90" height="90" viewBox="0 0 90 90" fill="none" xmlns="http://www.w3.org/2000/svg"><circle opacity=".5" cx="45" cy="45" r="45" fill="#FFE603"/><path d="M54.708 52.641c-.359-.434-1.052-.794-2.072-1.064v-2.489c.41.177.668.517.762 1.02l1.613-.207c-.114-.636-.366-1.147-.763-1.525-.396-.377-.932-.61-1.612-.692v-.63h-.92v.63c-.73.069-1.316.346-1.751.819-.44.472-.661 1.058-.661 1.75 0 .687.195 1.273.58 1.752.39.479.994.838 1.826 1.077v2.665a1.82 1.82 0 0 1-.624-.536 2.126 2.126 0 0 1-.384-.875l-1.663.176c.126.838.422 1.48.876 1.94.46.46 1.052.73 1.789.819v1.16h.92V57.24c.825-.12 1.473-.441 1.94-.97.466-.53.699-1.172.699-1.94 0-.687-.183-1.248-.555-1.689Zm-2.998-1.373a1.457 1.457 0 0 1-.617-.466 1.05 1.05 0 0 1-.202-.624c0-.245.076-.472.22-.674.152-.201.347-.346.599-.434v2.198Zm1.7 4.126c-.2.233-.46.384-.774.44v-2.481c.384.113.655.27.825.472.17.208.252.454.252.737 0 .322-.1.599-.302.832ZM29.965 41.384v9.808h4.126v-9.808h-4.126Zm3.1 8.775h-2.067v-7.742h2.066v7.742ZM36.156 38.291v12.901h4.126v-12.9h-4.126Zm3.1 11.875h-2.067V39.325h2.066v10.84Z" fill="#000"/><path d="M58.866 47.948V29H54.74v15.906a8.273 8.273 0 0 0-2.066-.391V32.099h-4.126v13.229a8.404 8.404 0 0 0-2.067 1.43V35.191h-4.126v16h1.701a8.392 8.392 0 0 0-.15 1.55c0 4.554 3.703 8.258 8.257 8.258 4.555 0 8.259-3.704 8.259-8.258a8.252 8.252 0 0 0-1.556-4.794Zm-3.093-17.915h2.066v16.724c-.057-.056-.12-.107-.176-.157a9.911 9.911 0 0 0-.391-.334 5.572 5.572 0 0 0-.693-.485 7.021 7.021 0 0 0-.365-.22c-.088-.05-.183-.101-.277-.145a1.101 1.101 0 0 0-.164-.095V30.033Zm-6.199 3.093h2.067v11.37c-.076.006-.158.013-.234.025-.056.007-.107.007-.163.013-.24.025-.473.063-.706.107l-.157.038a5.989 5.989 0 0 0-.555.145l-.201.056a.138.138 0 0 1-.05.02V33.125Zm-4.837 16a8.277 8.277 0 0 0-.429 1.033h-.926V36.225h2.066v11.717a.132.132 0 0 1-.025.038c-.094.132-.176.264-.264.396-.038.063-.076.12-.114.183-.082.139-.157.277-.233.416l-.075.151Zm7.42 10.84c-3.987 0-7.225-3.243-7.225-7.224a7.276 7.276 0 0 1 .46-2.52c.006-.025.019-.044.025-.07.07-.182.145-.358.233-.528.013-.032.032-.063.044-.095.082-.17.176-.334.27-.491l.058-.095a7.26 7.26 0 0 1 3.263-2.822c.201-.088.41-.163.617-.233.025-.006.044-.019.063-.025.214-.07.435-.126.649-.17a.793.793 0 0 1 .063-.019c.214-.044.434-.076.648-.1.026 0 .05-.007.082-.013a7.25 7.25 0 0 1 3.534.523l.05.025a6.943 6.943 0 0 1 .794.403c.057.031.114.07.164.1.214.133.428.284.63.441.019.02.044.032.063.05.466.379.895.813 1.26 1.299a7.162 7.162 0 0 1 1.468 4.352c.012 3.975-3.226 7.213-7.213 7.213Z" fill="#000"/></svg>
